icons/2_Variations/Braze bg.var.svg

<svg width="1024" height="1024" viewBox="0 0 1024 1024" fill="none" xmlns="http://www.w3.org/2000/svg">
<g clip-path="url(#clip0_3_29)">
<path d="M512 1024C794.77 1024 1024 794.77 1024 512C1024 229.23 794.77 0 512 0C229.23 0 0 229.23 0 512C0 794.77 229.23 1024 512 1024Z" fill="#96DFD3"/>
<path d="M862.97 557.779C862.97 557.779 856.01 548.019 853.86 545.229C852.36 543.409 850.54 541.269 845.82 544.479C835.22 551.549 823.33 558.089 808.66 558.089C797.41 558.089 787.66 555.199 780.38 548.979C783.49 547.579 786.7 546.079 789.91 544.259C807.27 534.929 821.72 522.919 828.69 515.949C862.43 482.169 851.94 431.769 810.7 431.769C771.81 431.769 741.18 469.619 741.18 511.769C741.18 518.089 741.92 527.209 744.6 536.749C742.35 537.819 726.93 545.329 708.5 555.519C691.14 542.539 664.15 548.339 664.15 548.339C689.22 512.629 727.03 456.969 730.25 452.369C732.6 449.039 732.18 445.819 729.92 440.679C727.03 434.459 724.14 433.379 720.28 433.379H641.76C639.2 433.379 637.16 434.559 636.4 437.459C635.65 440.349 634.05 450.319 633.73 453.649C633.4 457.089 636.62 459.229 639.94 459.229H696.82L645.4 532.899C645.07 533.229 644.76 533.539 644.43 533.969C636.94 544.799 625.47 559.919 611.76 559.919C603.19 559.919 592.59 553.809 592.59 533.749C592.59 513.689 600.52 472.629 606.3 440.239C606.94 436.799 605.77 433.379 600.19 433.379H586.27C583.05 433.379 581.23 435.319 580.81 438.099C579.95 443.029 579.09 447.849 578.34 452.579C571.49 439.389 560.45 431.879 544.6 431.879C529.82 431.879 515.46 437.359 503.68 449.149C474.32 478.529 479.89 526.469 454.52 551.879C443.59 562.819 431.26 559.489 431.26 537.939C431.26 513.379 440.69 485.929 451.41 459.979C453.33 455.359 451.3 451.499 449.26 448.609C446.37 444.419 445.3 442.279 440.16 442.279C432.12 442.279 419.38 447.329 393.78 447.329C388.32 447.329 383.17 447.109 378.45 446.789C378.78 442.929 378.78 440.359 378.89 439.389C379.1 435.739 377.82 433.489 373.96 433.489H360.89C356.18 433.489 355 435.749 354.46 439.499C352.21 455.159 348.04 512.739 319.11 541.589C315.79 544.909 313.75 545.989 313.75 545.989C320.93 531.939 324.79 513.499 324.79 498.809C324.79 457.629 300.47 432.109 269.84 432.109C260.52 432.109 250.66 435.109 241.35 440.889C245.63 415.799 249.6 392.319 250.99 384.379C252.17 377.619 249.81 374.189 247.99 371.399C245.08 366.909 242.53 364.859 238.66 364.859H193.45C190.88 364.859 188.96 366.679 188.3 369.579C187.55 372.899 185.95 381.689 185.74 385.759C185.52 389.299 187.99 390.689 190.88 390.689H223.88C218.64 423.089 208.57 485.819 205.56 501.569C201.72 521.619 187.46 546.179 163.48 554.979C160.48 556.049 159.3 558.839 160.37 562.059C161.44 565.279 165.62 573.639 166.91 575.779C168.2 578.039 170.98 579.429 173.55 578.569C185.97 574.159 197.43 567.099 206.43 558.089C208.742 555.775 210.891 553.302 212.86 550.689C223.56 574.929 245.64 583.729 268.01 583.729C293.4 583.729 320.83 574.819 340.11 555.619C362.61 533.099 371.92 495.999 376 469.629C381.57 470.369 387.89 471.009 394 471.009C409.42 471.009 422.39 467.689 422.39 467.689C422.39 467.689 406.86 509.079 406.86 539.539C406.86 573.959 423.35 583.719 441.46 583.719C459.57 583.719 473.38 569.679 482.69 552.199C485.16 557.659 488.8 564.089 493.73 569.029C502.19 577.509 512.69 583.729 527.9 583.729C545.26 583.729 560.15 573.759 570.75 558.319C572.67 564.859 575.57 570.209 579.53 574.179C584.88 579.549 594.74 583.729 606.95 583.729C628.05 583.729 640.37 567.859 673.26 567.859C677.44 567.859 681.19 568.499 684.62 569.679C669.51 578.899 655.16 588.759 646.38 597.559C619.27 624.699 617.98 660.509 635.77 678.309C657.4 699.979 688.04 689.029 707.32 669.829C729.81 647.319 736.35 604.749 723.39 575.679C739.13 567.419 752.32 561.319 755.42 559.809C765.28 573.209 781.56 583.719 808.34 583.719C827.51 583.719 846.9 576.959 862.01 565.489C864.16 563.449 864.69 560.119 862.98 557.769L862.97 557.779ZM281.21 548.559C275.1 554.669 267.6 557.999 259.99 557.999C252.92 557.999 246.82 554.779 241.67 549.629C224.31 532.259 225.81 489.479 248.21 467.069C254.53 460.739 262.24 457.099 270.06 457.099C277.13 457.099 283.23 460.209 288.38 465.359C304.66 481.769 305.62 524.129 281.2 548.579L281.21 548.559ZM529.4 557.889C510.65 557.889 498.44 535.259 502.18 507.379C505.93 479.499 524.14 456.879 542.88 456.879C560.24 456.879 572.03 476.289 570.74 501.279C570.2 504.919 569.77 508.349 569.45 511.779C564.41 537.629 547.16 557.889 529.39 557.889H529.4ZM685.47 656.119C660.94 680.679 629.66 649.359 666.18 612.789C674.44 604.529 688.03 595.419 702.18 587.059C710.21 606.999 703.89 637.669 685.47 656.119ZM783.91 467.599C802.33 449.149 822.8 454.619 822.8 472.529C822.8 490.439 801.91 508.879 776.63 523.459C774.16 524.849 771.26 526.459 768.37 527.959C767.4 523.559 766.87 518.739 766.87 513.269C766.76 498.259 773.08 478.419 783.9 467.589L783.91 467.599Z" fill="white"/>
</g>
<defs>
<clipPath id="clip0_3_29">
<rect width="1024" height="1024" fill="white"/>
</clipPath>
</defs>
</svg>

<svg xmlns="http://www.w3.org/2000/svg" width="1024" height="1024" fill="none">
   <g clip-path="url(#a)">
      <path fill="#96DFD3" d="M512 1024c282.77 0 512-229.23 512-512S794.77 0 512 0 0 229.23 0 512s229.23 512 512 512Z"/>
      <path fill="#fff" d="M862.97 557.779s-6.96-9.76-9.11-12.55c-1.5-1.82-3.32-3.96-8.04-.75-10.6 7.07-22.49 13.61-37.16 13.61-11.25 0-21-2.89-28.28-9.11 3.11-1.4 6.32-2.9 9.53-4.72 17.36-9.33 31.81-21.34 38.78-28.31 33.74-33.78 23.25-84.18-17.99-84.18-38.89 0-69.52 37.85-69.52 80 0 6.32.74 15.44 3.42 24.98-2.25 1.07-17.67 8.58-36.1 18.77-17.36-12.98-44.35-7.18-44.35-7.18 25.07-35.71 62.88-91.37 66.1-95.97 2.35-3.33 1.93-6.55-.33-11.69-2.89-6.22-5.78-7.3-9.64-7.3h-78.52c-2.56 0-4.6 1.18-5.36 4.08-.75 2.89-2.35 12.86-2.67 16.19-.33 3.44 2.89 5.58 6.21 5.58h56.88l-51.42 73.67c-.33.33-.64.64-.97 1.07-7.49 10.83-18.96 25.95-32.67 25.95-8.57 0-19.17-6.11-19.17-26.17 0-20.06 7.93-61.12 13.71-93.51.64-3.44-.53-6.86-6.11-6.86h-13.92c-3.22 0-5.04 1.94-5.46 4.72-.86 4.93-1.72 9.75-2.47 14.48-6.85-13.19-17.89-20.7-33.74-20.7-14.78 0-29.14 5.48-40.92 17.27-29.36 29.38-23.79 77.32-49.16 102.73-10.93 10.94-23.26 7.61-23.26-13.94 0-24.56 9.43-52.01 20.15-77.96 1.92-4.62-.11-8.48-2.15-11.37-2.89-4.19-3.96-6.33-9.1-6.33-8.04 0-20.78 5.05-46.38 5.05-5.46 0-10.61-.22-15.33-.54.33-3.86.33-6.43.44-7.4.21-3.65-1.07-5.9-4.93-5.9h-13.07c-4.71 0-5.89 2.26-6.43 6.01-2.25 15.66-6.42 73.24-35.35 102.09-3.32 3.32-5.36 4.4-5.36 4.4 7.18-14.05 11.04-32.49 11.04-47.18 0-41.18-24.32-66.7-54.95-66.7-9.32 0-19.18 3-28.49 8.78 4.28-25.09 8.25-48.57 9.64-56.51 1.18-6.76-1.18-10.19-3-12.98-2.91-4.49-5.46-6.54-9.33-6.54h-45.21c-2.57 0-4.49 1.82-5.15 4.72-.75 3.32-2.35 12.11-2.56 16.18-.22 3.54 2.25 4.93 5.14 4.93h33c-5.24 32.4-15.31 95.13-18.32 110.88-3.84 20.05-18.1 44.61-42.08 53.41-3 1.07-4.18 3.86-3.11 7.08 1.07 3.22 5.25 11.58 6.54 13.72 1.29 2.26 4.07 3.65 6.64 2.79 12.42-4.41 23.88-11.47 32.88-20.48a70.488 70.488 0 0 0 6.43-7.4c10.7 24.24 32.78 33.04 55.15 33.04 25.39 0 52.82-8.91 72.1-28.11 22.5-22.52 31.81-59.62 35.89-85.99 5.57.74 11.89 1.38 18 1.38 15.42 0 28.39-3.32 28.39-3.32s-15.53 41.39-15.53 71.85c0 34.42 16.49 44.18 34.6 44.18 18.11 0 31.92-14.04 41.23-31.52 2.47 5.46 6.11 11.89 11.04 16.83 8.46 8.48 18.96 14.7 34.17 14.7 17.36 0 32.25-9.97 42.85-25.41 1.92 6.54 4.82 11.89 8.78 15.86 5.35 5.37 15.21 9.55 27.42 9.55 21.1 0 33.42-15.87 66.31-15.87 4.18 0 7.93.64 11.36 1.82-15.11 9.22-29.46 19.08-38.24 27.88-27.11 27.14-28.4 62.95-10.61 80.75 21.63 21.67 52.27 10.72 71.55-8.48 22.49-22.51 29.03-65.08 16.07-94.15 15.74-8.26 28.93-14.36 32.03-15.87 9.86 13.4 26.14 23.91 52.92 23.91 19.17 0 38.56-6.76 53.67-18.23 2.15-2.04 2.68-5.37.97-7.72l-.01.01Zm-581.76-9.22c-6.11 6.11-13.61 9.44-21.22 9.44-7.07 0-13.17-3.22-18.32-8.37-17.36-17.37-15.86-60.15 6.54-82.56 6.32-6.33 14.03-9.97 21.85-9.97 7.07 0 13.17 3.11 18.32 8.26 16.28 16.41 17.24 58.77-7.18 83.22l.01-.02Zm248.19 9.33c-18.75 0-30.96-22.63-27.22-50.51 3.75-27.88 21.96-50.5 40.7-50.5 17.36 0 29.15 19.41 27.86 44.4-.54 3.64-.97 7.07-1.29 10.5-5.04 25.85-22.29 46.11-40.06 46.11h.01Zm156.07 98.23c-24.53 24.56-55.81-6.76-19.29-43.33 8.26-8.26 21.85-17.37 36-25.73 8.03 19.94 1.71 50.61-16.71 69.06Zm98.44-188.52c18.42-18.45 38.89-12.98 38.89 4.93s-20.89 36.35-46.17 50.93c-2.47 1.39-5.37 3-8.26 4.5-.97-4.4-1.5-9.22-1.5-14.69-.11-15.01 6.21-34.85 17.03-45.68l.01.01Z"/>
   </g>
   <defs>
      <clipPath id="a">
         <path fill="#fff" d="M0 0h1024v1024H0z"/>
      </clipPath>
   </defs>
</svg>
